X: 36546
T: Setting Sun, The
R: jig
M: 6/8
K: Dmajor
|:AFd AFd|AFD E2F|GFG Eed|cBc A2B|
AFd AFd|AFD E2F|GFG Eed|cBc d2B:|
|:Adf agf|efg B3|cBc ABc|dAG F2E|
Adf agf|efg B2d|cBc ABc|dfe d2B:|

